X: 264
T: Jacksons
R:Jig
M:6/8
L:1/8
K:G
A|"G"B2G Bcd|"C"ecc efg|"G"dcB gdB|"D"ABA ABc|"G"B2G Bcd|"C"ecc efg|"G"dcB gdB|"D"AGF "G"G2:|
f|"G"~g3 bag|"D"fed "A"^cde|"G"dcB gdB|"D"ABA ABd|"G"~g3 bag|"D"fed "A"^cde|"G"dcB gdB|"D"AGF "G"G2f|
"G"~g3 bag|"D"fed "A"^cde|"G"dcB gdB|"D"ABA ABc|"G"BAG Bcd|"C"edc efg|"G"dcB gdB|"D"AGF "G"G2||

